-----BEGIN PGP PRIVATE KEY BLOCK-----

lQWGBGqXB90BDADWFPId6rnH7lQsuNattDgq2YylJ/h3aYeU30RYYndSkLzkjym4
lIp1VuIkTHmfT2/ON44CE7nhFxhovJ4VeBryJrhyTyC+tIsefCjFzlz2+nS3HIRI
24iOEsAa5WWRHFTZvItlGgSwAkUqmQd+8VBL+HjXVxRo84dhiB0p4Ww9124Ixhdi
UogR6MtDPLAN8eVrBrYO4LoAI7iBD2glxORlYcMFU/aFkLHjmGU4wAYBh7C5paOD
kMdi1yZnfs+9S6maHBoyBjvhagvmK7qoZL/qDQYmEaVRvMwqgEwpSVIcgaRyAaRW
T/9vjgN4Nd1bPWmhF9gTjdQdanqPNySaal6TIYwLVmQ1APD0i4qybRVk1YKonUze
JnDYLcCHktEfkX5mc/3kYvZxUZQdUWnCTz63Fx3SFeJpZM8yVkrqJ2XF5ecSKxqT
1FW2V4lKtkj6n2fpdDmYxPd3YIy7RpufAq9wL4VIzHpyg4ulifuoTz2WaufM+y84
tOXkgmh7TimGb38AEQEAAf4HAwJsacqS9cp5lf+RYWLrzzt2VvoZ5VvupxqjevyK
RrwLZbR2MiyN3XzhUIvaGgLYSMyV4MA4J+vF5C9vLZoYm2oZVppYUiYpjik8v53U
cTb5oqwHyL9ieqcv55DnER+DG7cYSUDfeis9P9sKNK3d/aXv4Xljp0IUc7wq2NGz
6xBE18GNix+rhZB/0e4PC1B8UkVLizPdU9RskiTvvjYkiCO0QjTI+B48I5+aQHWI
4cGkTDqUWwuWK3jiZt2TfvRKmF8PtVbB1QCi1BHOWgztamJluQn/W5NDfScti8Wn
w1E6NrfTVwAgfIxyXdl6TWkR0MYet4MbRflc/sQQZUwbqL7kN8cTPPUd9P97Ux2y
NkDzsQRKoBZ9Tra7S9CfFZ3jVtQRla2O3RcPDRIDUgmQUtm7fgXxODHLdILvMCcr
z7cxD4So7bXVfQbfBj/Ynkc3IYWAP+yak1+rzeZkvIHhvx0ZQ3MC6izzfu9NdA3i
zRZPxPMsj8i2DW6Jna5BkQQEF/2BIZngf68xUR+rDUpqfpUhF4IcmZnT1nuNILxK
8hcoCqB/qMxre94k2DwGY9A6VylzAPV1LzxdtAxSlejzUdP8m2lTgVnbeFYUTlSi
kJZD9UBLNBjfq+6J5T4/9mHZ7vFZKrSQZjBXCSzEIUgN0pr+Awv37GKKOPMSI49B
16Alg71/Fvyiu6nEW2eFbVR0/tFoIHVu9DbFaZUaZzIGJJsHWMZi9iouJ1xqHSWh
7B/grk9sewIwSSZFRr4UeWDkUvH0K7GdHZ9teiXfYrjf5knbzVEWdu9ug1QlXtzo
pvm9Pe/oCJxaabmZbzWZVJAZj5Sla4EvOOKyt9V6F8PSKcvPpmP+Smvoy5J1hpKk
H/FCkc2rreWZcZzXTqiHUnnTDjhevoqpK2V6J8IX5NvP+VDyuVrgELp5j5IJwuws
S2EPAKD2n71XS210hiiVtSsJhnsq+OG0p97ZM7p5y7Dglaj/FXhCVTvRYL76TrSR
Du/ykDWRCPrG2HBJZa9ay9CJb7/jMwP556jYsajVJ91o9FcUEIlwHDMGUCRnJ53P
3OMhj7LJ2DpRjEE6nUNgFNNBxCQsiRflWsFXJ4IDxPb4KMwKBgYmKF1dr7aFultA
1YYJODPKvTHWE6jjP6gNb0YK2s1ghcKkdoVxk4gqG96zXHZ/utCsoOeuksM6NRkF
3E19DsB525qtIsBomWIAM3Nj21oPnY37je2bpWHbugvApsJO2nghZLdTjIyRexuP
rrf66RLqksPVssRDkstRcZYNbb5nYjmhUEklT91lkZa7XiVHC37iU5bQTUNawvMe
vGWEJ4yDxq+n35AxgI6lKjtZheLYlMYXa7QxQW5kcmVhIFBhbWVsYSBBbHZhcmV6
IExvcGV6IDwwMDA3MzgyNEB1Y2EuZWR1LnN2PokB0QQTAQoAOxYhBIx7Npol1JG8
p3YFJSbOPMb4cPYbBQJqlwfdAhsDBQsJCAcCAiICBhUKCQgLAgQWAgMBAh4HAheA
AAoJECbOPMb4cPYb89EL/RcaR5tOZBCJ7VD9tczanELy8i40Q88UfmMEE5KlbDrJ
6F1Lt7Tw9SzUM1X3gY8u3BEgpYJnKrUCCA+I0n6nKUAzVABsC0B6+q+KaelcdUoC
IrfSg8M9X57RJkchNOjGHB4Vo6RJy7Cn0JhKSVzuzZGoEKKYNau2WJABKbNZ7C3X
jMIuW0A4p1OPUiS6/IZaadjRiCohZ7sLM2KmIeGKsi6C6FoH05z9eIk2tB9BJ9xs
80Ixc3SwYsonSSBty2s3ELJxA6csgVoxp1Gy5mItIvyzVDwPutuTrHlU6Zb517mV
RcJjmozUZ9pSqfIDVbwY+N7yBuSgJqR/KcbDpgwE4RnmSXd4SQBornOmE3bl+Lmw
aFd/NvXWCm33WPl6IqlnGRwcnmBfSfsMhBuj6D+7sBU0oX0FSMC6OsXeY3CNXVjV
I7nUR9T9E1+ZC5LOAhN3gb5kKCoN3977YU1fqt3NUiI3xIVrFl0/M/9vRq5sK0KR
XS7i3CY8M8C5J7r5v582xJ0FhgRqlwfdAQwArPI3ScKIfvN5uOeu63jjFMOBaoBz
9SYJ1iCci1o1lCNLiRIoN9LWSR/N5U89cYAkNB4UEiYXE9Svg0NhMGPjBFVYS680
B2/LRxeMGwKHswovRWbORJiLPm0nf0XnLNQELmLIwtNMyxtz+lG9wjWvceA2xKTw
WutOgBVxCuQndatANg3NVzXnGzEbGxI6hIe0HaDecnOSpy6IOAn4gSHpHrIX+b09
3Zvm/8yOg+Qbav95p3yaMYcujuWxI6n64BNfZ3Tps7Hmzl5n3TJilw3ogkM0QS7q
+4REae1fCGYE7dMpkZSMNGBbv4U29VQLGLY5hUUK6NihSkExdW+fcz8eM1JFeWXH
Xj8H6ErHxEv54QLi8KSS0sMHT6G0twVZCtsnzl4E8atB0xWuVB4mY3XK9sprKybZ
vDKltig0iglwlFfrR5kYN7EGt4Z1rg2DHuMoUE9H3gOEWqCJfFICmmrQl8ANNSWP
8A6XWyFxoYWh+zfbGjtYM5v3tE4hp9faQ/vJABEBAAH+BwMC20Y13YfPGef/hmdl
2GN4Bf5UT2/TtI+jwD0Se4jso1r6f0AoDu8J1zM4Vyel49jSx9LwQ4A8DsYZVAKP
rpu0i/7pHFQsyACYnuPgWr4RGOnhSvXUiIr38HgD5d3sCjn7ay+MfhD6HrpuF2v/
hkVHwyzFXj5PuvQN2f8rijVcgeS1a/B4EHgzDWJyokiTtTgcj769AhN/uBBwm40J
vd6QQ+F/JQ3/QWlaRAaOH3RmlDK3/d5bA1GQDS8Kj0IaWTceGMKB2RN1jPAHSa+K
TXujOY/G7Rmb9w84giBdHJ89qqerJI6kZRng89Sx/cE9cA6arGyV779fRnHVuXv5
2xABdmwa1fFvsyirnDJQSVOFU6zWHX4jkA1+WtGX7Z2MHzs/spC5TqfqiJJd6+1V
OUK2hqMZsH4aHHg/UpWmzojyM1dVXKgyOgKrK3LdpRHoRq5iA2UqEsbjxthoz6Ul
jBFr9dPlNg2jsHTPsNp2pR/anOQouXBcerJO7HQDvxBL/QurfGjUJcMj19fYTJdN
Gfjtijp1gUqpikmN+gvUKh68VQWst+XFM1LKr9xutf/xtOQYtvn/OpcYFXAsL13T
z8HV8GPUk4pF2uDSs08t1T/DL6Afm0OAqeyAIsPHn7cshukOMD5iFbe1IYtvb9kG
dlEFw3507RINPJowUbWchIVVOkQxeOqp7cf6ZzJ6xd9MsHF7bRoQt+mUwUCYjkZq
RaAJualzur60+B9aZ1Ha8ESwAqbNFk3kAlRxTVYLZ8ibZiaOz9KZWWzsrcY0zoz1
nbbVLIhjR49ot22XaFAy3YoCqUblw41rfMcYVBUI7ZapSpvV/lHXFS6VSmjmeYjQ
FQ3rroVQtr7D/Nw+RQzy3PkoYbz2ZB9m4W9CKhTQuEVYoZvXIwqyMPhEXt4tw+43
eE7v8ZPmy4jlgFpzcd3YRXiK7wRh1wkI3FO12wO1hbaVNvV5o1uM4QbxEdUEkTDj
7wEbS/H78M9ym841JtNw1JLeLKQS/qG1txmvjeWOOr71ldns8EK9+0XQeutMPYxu
QAgkIpo+ACIhplBnRxKEQYhPcdb3N9ypCAjpRdv3Adf5pmxGPDALcI/ugAvLdrHa
Xs12APogv/EYo4bQ6+9T5wWYqq00CronTWHmuo3QRFMYYBk7uz7Iq7Fcd7ifWqka
MeZxplZ0TBrPnawSotHTc5W+X6i0c4xKekDyKI2rBY4n+Sa5D9JE/637lvt8Ul2N
xLOPMGwjTMVdHZp0nO4jqzd7i5TcFmAs6jny6P+RCHPUtYia5F3JAIsv4IooCt9g
SH/oFBAV0fYL5vYUupEdFpYUsX3vzKse+Tv2rJ4/uVH6bf3OzlI7zFqJAbYEGAEK
ACAWIQSMezaaJdSRvKd2BSUmzjzG+HD2GwUCapcH3QIbDAAKCRAmzjzG+HD2Gxek
C/4yHpS882mdC4dwfVcd96dva0HEKDfxm7FBw5i1Fj6JzlQATSEaGLYK0MfhPPQB
C4rM0ql9SEbqmm3yks8gJbxyHKwS4IMvrrgJI1oK1WWKb+/ppWo8nMvHuy1ll20W
op5NCf+YtxLbGGpPw0fq34uh/J5DuAicowufdJ/uD0MQqSlpveuag6qrnlsBtigM
Qn9/6KPcu3JBvRweLOwVAZmMuCKw7yGrTrbl26hEjtga45TAfxQwXXgg0rz+6oPx
H7szGkTL9b7WMd/nRndIvr5bSktXbvSao+NN1BgU4QQxJkR0FhI75CT2gL0IJmDt
94wH6yvW5FDue8/QIU0jaWIo51l5jgaKif63a8zOx+ElYQnj0W4LLMGQgob3T4dI
/WBcfZ0B7IxqD5vPVgPKtY0UY9Uo3oKUPlc/CO1k5SAwRvK3mCwYh04GBFglYfT0
hGqaobvyBksZEsOVKW6JpJjE95OSwCgaLJMyjgB7P1fJujZyv62LXNcWsK+Y7IQj
0hI=
=zuln
-----END PGP PRIVATE KEY BLOCK-----
